src/assets/images/icon-detailed-records.svg

<svg width="40" height="40" viewBox="0 0 40 40" fill="none" xmlns="http://www.w3.org/2000/svg">
<path d="M19.968 0C30.978 0 39.937 8.958 39.937 19.968C39.937 30.978 30.979 39.937 19.968 39.937C8.958 39.937 0 30.979 0 19.968C0 8.958 8.958 0 19.968 0ZM27.773 35.579C22.91 33.177 17.027 33.177 12.164 35.579C14.584 36.8012 17.2569 37.439 19.968 37.441C22.6795 37.4391 25.3527 36.8014 27.773 35.579V35.579ZM21.217 2.559V6.24H18.72V2.56C15.262 2.80372 11.9561 4.07704 9.228 6.216L12.026 9.013L10.261 10.778L7.373 7.89C4.84987 10.5161 3.21378 13.8673 2.695 17.472H7.488V19.969H2.496C2.496 25.774 5.353 30.912 9.723 34.091C15.94 30.377 23.997 30.377 30.213 34.091C34.583 30.912 37.441 25.774 37.441 19.968H32.449V17.472H37.242C36.7232 13.8673 35.0871 10.5161 32.564 7.89L29.676 10.778L27.911 9.013L30.709 6.216C27.9811 4.07668 24.6751 2.80301 21.217 2.559V2.559ZM18.78 10.851C19.112 9.817 20.825 9.817 21.157 10.851C21.792 12.829 24.961 22.806 24.961 24.961C24.9597 26.2847 24.4332 27.5538 23.4971 28.4898C22.5609 29.4257 21.2917 29.9519 19.968 29.953C18.6444 29.9517 17.3755 29.4253 16.4396 28.4894C15.5037 27.5535 14.9773 26.2846 14.976 24.961C14.976 22.806 18.146 12.829 18.78 10.851V10.851ZM19.968 15.418C18.735 19.465 17.472 23.94 17.472 24.961C17.4731 25.6227 17.7364 26.2569 18.2042 26.7248C18.6721 27.1926 19.3063 27.4559 19.968 27.457C20.6298 27.4562 21.2643 27.193 21.7324 26.7251C22.2005 26.2572 22.4639 25.6228 22.465 24.961C22.465 23.941 21.202 19.465 19.968 15.418V15.418Z" fill="#2BD0D0"/>
</svg>

<svg xmlns="http://www.w3.org/2000/svg" width="40" height="40"><path fill="#2BD0D0" d="M19.968 0c11.01 0 19.969 8.958 19.969 19.968s-8.958 19.969-19.969 19.969C8.958 39.937 0 30.979 0 19.968 0 8.958 8.958 0 19.968 0zm7.805 35.579c-4.863-2.402-10.746-2.402-15.609 0a17.339 17.339 0 007.804 1.862 17.34 17.34 0 007.805-1.862zm-6.556-33.02V6.24H18.72V2.56a17.362 17.362 0 00-9.492 3.656l2.798 2.797-1.765 1.765L7.373 7.89a17.41 17.41 0 00-4.678 9.582h4.793v2.497H2.496c0 5.805 2.857 10.943 7.227 14.122 6.217-3.714 14.274-3.714 20.49 0 4.37-3.179 7.228-8.317 7.228-14.123h-4.992v-2.496h4.793a17.41 17.41 0 00-4.678-9.582l-2.888 2.888-1.765-1.765 2.798-2.797a17.362 17.362 0 00-9.492-3.657zm-2.437 8.292c.332-1.034 2.045-1.034 2.377 0 .635 1.978 3.804 11.955 3.804 14.11a4.997 4.997 0 01-4.993 4.992 4.997 4.997 0 01-4.992-4.992c0-2.155 3.17-12.132 3.804-14.11zm1.188 4.567c-1.233 4.047-2.496 8.522-2.496 9.543a2.5 2.5 0 002.496 2.496 2.5 2.5 0 002.497-2.496c0-1.02-1.263-5.496-2.497-9.543z"/></svg>
